2 Export/Icons/Rounded/1 Player/Pause.svg

<svg xmlns="http://www.w3.org/2000/svg" xmlns:xlink="http://www.w3.org/1999/xlink" width="24" height="24" viewBox="0 0 24 24">
  <defs>
    <path id="pause-a" d="M8 19c1.1 0 2-.9 2-2V7c0-1.1-.9-2-2-2s-2 .9-2 2v10c0 1.1.9 2 2 2zm6-12v10c0 1.1.9 2 2 2s2-.9 2-2V7c0-1.1-.9-2-2-2s-2 .9-2 2z"/>
  </defs>
  <g fill="none" fill-rule="evenodd">
    <polygon points="0 0 24 0 24 24 0 24"/>
    <mask id="pause-b" fill="#fff">
      <use xlink:href="#pause-a"/>
    </mask>
    <use fill="#000" xlink:href="#pause-a"/>
    <g fill="#000" mask="url(#pause-b)">
      <rect width="24" height="24"/>
    </g>
  </g>
</svg>

<svg xmlns="http://www.w3.org/2000/svg" xmlns:xlink="http://www.w3.org/1999/xlink" width="24" height="24" viewBox="0 0 24 24">
  <defs>
    <path id="pause-a" d="M8,19 C9.1,19 10,18.1 10,17 L10,7 C10,5.9 9.1,5 8,5 C6.9,5 6,5.9 6,7 L6,17 C6,18.1 6.9,19 8,19 Z M14,7 L14,17 C14,18.1 14.9,19 16,19 C17.1,19 18,18.1 18,17 L18,7 C18,5.9 17.1,5 16,5 C14.9,5 14,5.9 14,7 Z"/>
  </defs>
  <g fill="none" fill-rule="evenodd">
    <polygon points="0 0 24 0 24 24 0 24"/>
    <mask id="pause-b" fill="#fff">
      <use xlink:href="#pause-a"/>
    </mask>
    <use fill="#000" xlink:href="#pause-a"/>
    <g fill="#000" mask="url(#pause-b)">
      <rect width="24" height="24"/>
    </g>
  </g>
</svg>
